!!!OTL: 175. Freylekhs
!!!Genre:	Freylekhs
!!!Mode:	Major
!!!Listening/dance:	dance
!!!:	*g:dor
!!!One_Mode:	no
**kern
*thru
*I"P1
*clefG2
*k[f#]
*G:
*M2/4
*>A
=1
!LO:TX:a:i:t=G-major
8g
4b
8g
=2
8aL
8b
8cc
8ddJ
=3
8r
4b
8g
=4
8ccL
8b
8a
8gJ
=5
8g
4b
8g
=6
8aL
8b
8cc
8ddJ
=7
8bL
8g
8a
8f#J
=8
2g
=9:|!
*k[b-]
!!!Begin-Modulation
*-
